svg/transport/car_fill.svg

<?xml version="1.0" encoding="UTF-8"?>
<svg width="24px" height="24px" viewBox="0 0 24 24" version="1.1" xmlns="http://www.w3.org/2000/svg" xmlns:xlink="http://www.w3.org/1999/xlink">
    <title>car_fill</title>
    <g id="Icon" stroke="none" stroke-width="1" fill="none" fill-rule="evenodd">
        <g id="Transport" transform="translate(-288.000000, -48.000000)">
            <g id="car_fill" transform="translate(288.000000, 48.000000)">
                <path d="M24,0 L24,24 L0,24 L0,0 L24,0 Z M12.5935,23.2578 L12.5819,23.2595 L12.5109,23.295 L12.4919,23.2987 L12.4767,23.295 L12.4057,23.2595 C12.3958,23.2564 12.387,23.259 12.3821,23.2649 L12.378,23.2758 L12.3609,23.7031 L12.3659,23.7235 L12.3769,23.7357 L12.4805,23.8097 L12.4953,23.8136 L12.5071,23.8097 L12.6107,23.7357 L12.6233,23.7197 L12.6267,23.7031 L12.6096,23.2758 C12.6076,23.2657 12.601,23.2593 12.5935,23.2578 Z M12.8584,23.1453 L12.8445,23.1473 L12.6598,23.2397 L12.6499,23.2499 L12.6472,23.2611 L12.6651,23.6906 L12.6699,23.7034 L12.6784,23.7105 L12.8793,23.8032 C12.8914,23.8069 12.9022,23.803 12.9078,23.7952 L12.9118,23.7812 L12.8777,23.1665 C12.8753,23.1546 12.8674,23.147 12.8584,23.1453 Z M12.143,23.1473 C12.1332,23.1424 12.1222,23.1453 12.1156,23.1526 L12.1099,23.1665 L12.0758,23.7812 C12.0751,23.7927 12.0828,23.8019 12.0926,23.8046 L12.1083,23.8032 L12.3092,23.7105 L12.3186,23.7024 L12.3225,23.6906 L12.3404,23.2611 L12.3372,23.2485 L12.3278,23.2397 L12.143,23.1473 Z" id="MingCute" fill-rule="nonzero"></path>
                <path d="M15.7639,4 C16.9002,4 17.939,4.64201 18.4472,5.65836 L19.8326,8.4292 C20.0766,8.32868 20.3173,8.22126 20.5532,8.10535 C21.0471,7.85867 21.6475,8.05891 21.8944,8.55276 C22.1414,9.04674 21.9412,9.64741 21.4472,9.8944 C21.2061,10.0018 20.9645,10.1063 20.7217,10.2073 L21.6833,12.1305 C21.8916,12.5471 22,13.0064 22,13.4721 L22,16 C22,16.8885 21.6137,17.6868 21,18.2361 L21,19.5 C21,20.3284 20.3284,21 19.5,21 C18.6716,21 18,20.3284 18,19.5 L18,19 L6,19 L6,19.5 C6,20.3284 5.32843,21 4.5,21 C3.67157,21 3,20.3284 3,19.5 L3,18.2361 C2.38625,17.6868 2,16.8885 2,16 L2,13.4721 C2,13.0064 2.10844,12.5471 2.31672,12.1305 L3.27037,10.2232 C3.02889,10.1209 2.79023,10.0122 2.55528,9.89564 C2.06661,9.65198 1.86107,9.04179 2.10558,8.55276 C2.3525,8.05891 2.95292,7.85866 3.44683,8.10535 C3.68313,8.22152 3.92369,8.32893 4.1673,8.42934 L5.55279,5.65836 C6.06096,4.64201 7.09975,4 8.23607,4 L15.7639,4 Z M7.5,13 C6.67157,13 6,13.6716 6,14.5 C6,15.3284 6.67157,16 7.5,16 C8.32843,16 9,15.3284 9,14.5 C9,13.6716 8.32843,13 7.5,13 Z M16.5,13 C15.6716,13 15,13.6716 15,14.5 C15,15.3284 15.6716,16 16.5,16 C17.3284,16 18,15.3284 18,14.5 C18,13.6716 17.3284,13 16.5,13 Z M15.7639,6 L8.23608,6 C7.89939556,6 7.58839802,6.16908642 7.40447605,6.44460422 L7.34166,6.55279 L6.07263,9.09084 C7.61997,9.55495 9.70508,9.99998 12,9.99998 C14.142,9.99998 16.1011538,9.61231813 17.6108665,9.18328313 L17.9274,9.09084 L16.6584,6.55279 C16.5078222,6.25164333 16.2174716,6.04909617 15.8887649,6.00780355 L15.7639,6 Z" id="形状" fill="#09244B"></path>
            </g>
        </g>
    </g>
</svg>

<svg xmlns="http://www.w3.org/2000/svg" width="24" height="24"><g fill="none" fill-rule="evenodd"><path d="M24 0v24H0V0h24ZM12.594 23.258l-.012.002-.071.035-.02.004-.014-.004-.071-.036c-.01-.003-.019 0-.024.006l-.004.01-.017.428.005.02.01.013.104.074.015.004.012-.004.104-.074.012-.016.004-.017-.017-.427c-.002-.01-.009-.017-.016-.018Zm.264-.113-.014.002-.184.093-.01.01-.003.011.018.43.005.012.008.008.201.092c.012.004.023 0 .029-.008l.004-.014-.034-.614c-.003-.012-.01-.02-.02-.022Zm-.715.002a.023.023 0 0 0-.027.006l-.006.014-.034.614c0 .012.007.02.017.024l.015-.002.201-.093.01-.008.003-.011.018-.43-.003-.012-.01-.01-.184-.092Z"/><path fill="#09244B" d="M15.764 4a3 3 0 0 1 2.683 1.658l1.386 2.771c.244-.1.484-.208.72-.324a1 1 0 0 1 .894 1.79 31.77 31.77 0 0 1-.725.312l.961 1.923A3 3 0 0 1 22 13.473V16c0 .889-.386 1.687-1 2.236V19.5a1.5 1.5 0 0 1-3 0V19H6v.5a1.5 1.5 0 0 1-3 0v-1.264c-.614-.55-1-1.348-1-2.236v-2.528a3 3 0 0 1 .317-1.341l.953-1.908c-.241-.102-.48-.21-.715-.327a1.01 1.01 0 0 1-.45-1.343 1 1 0 0 1 1.342-.448c.236.117.477.224.72.324l1.386-2.77A3 3 0 0 1 8.236 4h7.528ZM7.5 13a1.5 1.5 0 1 0 0 3 1.5 1.5 0 0 0 0-3Zm9 0a1.5 1.5 0 1 0 0 3 1.5 1.5 0 0 0 0-3Zm-.736-7H8.236a1 1 0 0 0-.832.445l-.062.108-1.27 2.538C7.62 9.555 9.706 10 12 10c2.142 0 4.101-.388 5.61-.817l.317-.092-1.269-2.538a1 1 0 0 0-.77-.545L15.765 6Z"/></g></svg>
